packages/gamut-icons/src/medium.svg

<?xml version="1.0" encoding="utf-8"?>
<!-- Generated by IcoMoon.io -->
<!DOCTYPE svg PUBLIC "-//W3C//DTD SVG 1.1//EN" "http://www.w3.org/Graphics/SVG/1.1/DTD/svg11.dtd">
<svg version="1.1" xmlns="http://www.w3.org/2000/svg" xmlns:xlink="http://www.w3.org/1999/xlink" width="16" height="16" viewBox="0 0 16 16">
<path fill="#444" d="M16 3.5h-0.6c-0.2 0-0.6 0.3-0.6 0.6v7.9c0 0.2 0.3 0.5 0.6 0.5h0.6v1.9h-5.7v-1.9h1.2v-8.3h-0.1l-2.8 10.1h-2.2l-2.7-10.1h-0.1v8.3h1.2v1.9h-4.8v-1.9h0.6c0.3 0 0.6-0.3 0.6-0.5v-7.9c0-0.2-0.3-0.6-0.6-0.6h-0.6v-1.8h6l2 7.3 2-7.3h6v1.8z"></path>
</svg>

<svg xmlns="http://www.w3.org/2000/svg" viewBox="0 0 16 16">
    <path fill="#444" d="M16 3.5h-.6c-.2 0-.6.3-.6.6V12c0 .2.3.5.6.5h.6v1.9h-5.7v-1.9h1.2V4.2h-.1L8.6 14.3H6.4L3.7 4.2h-.1v8.3h1.2v1.9H0v-1.9h.6c.3 0 .6-.3.6-.5V4.1c0-.2-.3-.6-.6-.6H0V1.7h6L8 9l2-7.3h6v1.8z"/>
</svg>
